X: 11033
M: 2/4
L: 1/16
K: Eb
!f!B,2 |\
E2GF E2GF | EB,CD EFGA | BGed cBAG | F2F2 F2GF |\
E2GF E2GF | EFGA Bcde | (ce)cA (GB)AF | E2G2E2 H|]
!p!(GA) |\
!f!G2 |\
c3G A3F | G3E F3D | E2G2B2E2 | D2=B,2 G,4 |!p!\
e2(gf) e2c2 | B2G2 "^8va  .  .  . "E2F2 | G2GA GFED | C3D "^D.C."C2 |]


